packages/ffe-icons/icons/filled/md/weight.svg

<svg xmlns="http://www.w3.org/2000/svg" height="24" viewBox="0 -960 960 960" width="24"><path d="M480-659.999q17 0 28.5-11.5t11.5-28.5q0-17-11.5-28.5t-28.5-11.5q-17 0-28.5 11.5t-11.5 28.5q0 17 11.5 28.5t28.5 11.5Zm90.691 0h81.924q27.307 0 47.192 17.885 19.884 17.884 24.115 44.577l53.538 375.382q4.615 32.539-16.769 57.346-21.385 24.808-54.923 24.808H254.232q-33.538 0-54.923-24.808-21.384-24.807-16.769-57.346l53.538-375.382q4.231-26.693 24.115-44.577 19.885-17.885 47.192-17.885h81.924q-4.154-9.23-6.731-19.115-2.577-9.885-2.577-20.885 0-41.922 29.038-70.96 29.039-29.038 70.961-29.038t70.961 29.038q29.038 29.038 29.038 70.96 0 11-2.577 20.885-2.577 9.885-6.731 19.115Z"/></svg>

<svg xmlns="http://www.w3.org/2000/svg" height="24" viewBox="0 -960 960 960" width="24"><path d="M480-660q17 0 28.5-11.5T520-700q0-17-11.5-28.5T480-740q-17 0-28.5 11.5T440-700q0 17 11.5 28.5T480-660Zm90.69 0h81.92q27.31 0 47.2 17.89 19.88 17.88 24.11 44.57l53.54 375.39q4.62 32.53-16.77 57.34Q739.31-140 705.77-140H254.23q-33.54 0-54.92-24.81-21.39-24.81-16.77-57.34l53.54-375.39q4.23-26.69 24.11-44.57Q280.08-660 307.39-660h81.92q-4.15-9.23-6.73-19.11Q380-689 380-700q0-41.92 29.04-70.96Q438.08-800 480-800q41.92 0 70.96 29.04Q580-741.92 580-700q0 11-2.58 20.89-2.58 9.88-6.73 19.11Z"/></svg>
